X: 21351
T: MUIRLAND WILLIE
%R: jig
B: "Edinburgh Repository of Music" v.2 p.135 #1
F: http://digital.nls.uk/special-collections-of-printed-music/pageturner.cfm?id=87776133
Z: 2015 John Chambers <jc:trillian.mit.edu>
M: 6/8
L: 1/8
K: Gm
D |\
G2A B2c | d>ed f3 | cAc f2d | {d}c2B AG^F |\
G2A B2c | d>ed b2b | {b}a^ga dg^f | {f}Tg3 {^fg}G2 :|
|: d |\
g2a b2b | d2e f3 | cAc f2d | {d}c2B AG^F |\
G2A B2c | d>ed b2b | {b}a^ga d<g^f | {f}Tg3 {^fg}G2 :|

%%sep 2 1 500
%%sep 1 1 500

